X:97
T: ROTHE BAECKLE BLAU AEUGLE
N: F0207A
O: Europa, Mitteleuropa, Deutschland
R: Liebes - Lied
M: 3/8
L: 1/16
K: G
DD | G3FG2 | A2e2dd | c2D2F2 | G2
e2d2 | c2F2A2 | B2e2d2 | c2D2D2 | G2z2

